X: 293
T: Nellie Bly
S: Viola Ruth "Pioneer Western Folk Tunes" 1948 p.29 #3
R: march
Z: 2019 John Chambers <jc:trillian.mit.edu>
M: 2/4
L: 1/8
K: C
V: 1 name="81"
|:"^Quadrille"\
EFG2 | EFG2 | EFGA | D4 |\
EFG2 | ABc2 | ecdd | c4 :|
|:\
e2c2 | AAF2 | GGEC | D4 |\
EFG2 | ABc2 | ecdd | c4 :|

